!!!OTL: Graf und Nonne (Die Nonne)
!!!OTL-incipit:Ich stand auf hohem Berge
!!!ARE: Europa, Mitteleuropa, Deutschland (), Sachsen, Eisleben
!!!YOR: 8, S. 292
!!    1842 aufgezeichnet
!!!SCT: Q0155T.
!!!TXL: @@DE
!!!YEM: Copyright 1995, estate of Helmut Schaffrath.
**kern	**text
*ICvox	*
*M2/4	*
*k[f#]	*
*G:	*
{(16gL	Ich
16bJ)	.
=1	=1
8.ddL	stand
16eeJ	auf
8ddL	ho-
8ccJ	-hem
=2	=2
4b	Ber-
8a}	-ge
{8a	und
=3	=3
8bL	sah
8bJ	ins
8cc#L	tie-
(16cc#	-fe
16eeJ)	.
=4	=4
4dd	Tal,
8r}	.
{8dd	ein
=5	=5
8ggL	Schiff-
8ggJ	-lein
8ff#L	sah
8ff#J	ich
=6	=6
4ee	fah-
8dd	-ren,
8r	.
=7	=7
4cc	fah-
8b}	-ren,
{8dd	da-
=8	=8
8eeL	-rin
8ccJ	drei
8ddL	Gra-
8f#J	-fen
=9	=9
4g	warn.
8r}	.
==	==
!!!AGN: Ballade, Standesunterschied, vergebliche Werbung, Liebe, Klage
!! Anhaengsel an der dritten Zeile.
!!!ONB: ESAC (Essen Associative Code) Database: BALLADE
!!!AMT: simple duple
!!!AIN: vox
!!!EED: Helmut Schaffrath
!!!EEV: 1.0
!!!source: Deutsche Volkslieder mit ihren Melodien. Herausgegeben vom Deutschen Volksliedarchiv. Achter Teil. Freiburg/Breisgau 1988.
!!!page: 292
!!!ENC: Anna Maria Matuszewska
!!!EEV: 2025/03/10
*-	*-
